src/lib/packages/icons/src/assets/line/bookmarks-plus.svg

<svg width="24" height="24" viewBox="0 0 24 24" fill="none" xmlns="http://www.w3.org/2000/svg">
<path d="M17.4299 1.25H10.571C8.46105 1.25 7.25098 2.45995 7.25098 4.56995V5.25H6.57202C4.43002 5.25 3.25098 6.43005 3.25098 8.57104V22C3.25098 22.268 3.394 22.515 3.625 22.649C3.741 22.716 3.87098 22.75 4.00098 22.75C4.12898 22.75 4.25805 22.717 4.37305 22.651L10.001 19.4351L15.6289 22.651C15.8609 22.784 16.147 22.7829 16.377 22.6479C16.608 22.5139 16.751 22.267 16.751 22V17.004L19.6279 18.651C19.7439 18.717 19.872 18.75 20.001 18.75C20.131 18.75 20.261 18.716 20.377 18.649C20.608 18.515 20.751 18.268 20.751 18V4.56995C20.75 2.45995 19.5399 1.25 17.4299 1.25ZM15.25 20.707L10.3721 17.92C10.1421 17.788 9.85793 17.788 9.62793 17.92L4.75 20.708V8.57202C4.75 7.27902 5.27704 6.75098 6.57104 6.75098H13.428C14.722 6.75098 15.249 7.27902 15.249 8.57202V20.707H15.25ZM19.25 16.707L16.75 15.275V8.57104C16.75 6.42904 15.57 5.25 13.429 5.25H8.75V4.56995C8.75 3.27795 9.27707 2.75 10.5701 2.75H17.429C18.722 2.75 19.249 3.27695 19.249 4.56995V16.707H19.25ZM12.75 12.5C12.75 12.914 12.414 13.25 12 13.25H10.75V14.5C10.75 14.914 10.414 15.25 10 15.25C9.586 15.25 9.25 14.914 9.25 14.5V13.25H8C7.586 13.25 7.25 12.914 7.25 12.5C7.25 12.086 7.586 11.75 8 11.75H9.25V10.5C9.25 10.086 9.586 9.75 10 9.75C10.414 9.75 10.75 10.086 10.75 10.5V11.75H12C12.414 11.75 12.75 12.086 12.75 12.5Z" fill="currentColor"/>
</svg>

<svg xmlns="http://www.w3.org/2000/svg" width="24" height="24" fill="none"><path fill="currentColor" d="M17.43 1.25h-6.86c-2.11 0-3.32 1.21-3.32 3.32v.68h-.679c-2.142 0-3.321 1.18-3.321 3.321V22a.75.75 0 0 0 1.122.651L10 19.435l5.628 3.216A.75.75 0 0 0 16.75 22v-4.996l2.877 1.647A.752.752 0 0 0 20.75 18V4.57c-.001-2.11-1.211-3.32-3.321-3.32Zm-2.18 19.457-4.878-2.787a.749.749 0 0 0-.744 0L4.75 20.708V8.572c0-1.293.527-1.821 1.821-1.821h6.857c1.294 0 1.821.528 1.821 1.821v12.135h.001Zm4-4-2.5-1.432V8.571c0-2.142-1.18-3.321-3.321-3.321H8.75v-.68c0-1.292.527-1.82 1.82-1.82h6.859c1.293 0 1.82.527 1.82 1.82v12.137h.001Zm-6.5-4.207a.75.75 0 0 1-.75.75h-1.25v1.25a.75.75 0 0 1-1.5 0v-1.25H8a.75.75 0 0 1 0-1.5h1.25V10.5a.75.75 0 0 1 1.5 0v1.25H12a.75.75 0 0 1 .75.75Z"/></svg>
